X: 3418
M: 2/4
L: 1/16
K: D
d2(ef) edcB | A2(AB) A2A2 | def2 def2 | g2e2e2A2 |\
d2(ef) edcB | A2(ab) agfe | defd efge | f2d2d2 :|
|: (de) |\
f2(ef) gfed | B2B2B2 (Bc) | d2A2 defd | g2e2e2A2 |\
d2(ef) edcB | A2(ab) agfe | defd efge | f2d2d2 :|


